X:1
T:Living by Faith
T:Living by Faith
T:J. L. Heath
T:James Wells & Robert E. Winsett, 1918
T:Public Domain Courtesy of the Cyber Hymnal™
T:Public Domain Courtesy of the Cyber Hymnal™
C:J. L. Heath
Z:Public Domain
Z:Courtesy of the Cyber Hymnal™
%%score ( 1 2 ) ( 3 4 )
L:1/8
Q:1/4=95
M:6/8
K:Eb
V:1 treble 
V:2 treble 
V:3 bass 
V:4 bass 
V:1
 [B,E] | [EG][EG][EG] [EG][E^F][EG] | [GB][GB][GB] [EG]2 [B,E] | [EG][EG][EG] [EG][CF][CE] | %4
w: 1.~I|care not to- day what the|mor- row may bring, If|sha- dow or sun- shine or|
w: 2.~Though|tem- pests may blow and the|storm clouds a- rise, Ob-|scur- ing the bright- ness of|
w: 3.~I|know that He safe- ly will|car- ry me through, No|mat- ter what e- vils be-|
w: 4.~Our|Lord will re- turn for His|loved ones some day, Our|trou- bles will then all be|
 [DF]3- [DF]2 [B,E] | [EG][EG][EG] [EG][E^F][EG] | [GB][GB][GB] [EG]2 [B,E] | %7
w: rain, * The|Lord I know rul- eth o’er|ev- er- y- thing, And|
w: life, * I’m|ne- ver a- larmed at the|o- ver- cast skies— The|
w: tide; * Why|should I then care though the|tem- pest may blow, If|
w: o’er; * The|Mas- ter so gent- ly will|lead us a- way, Be-|
 [EG][EG][EG] [DF][B,E][B,F] | [B,E]3- [B,E]2 ||[M:12/8]"^Refrain" [GB][GB][GB] | %10
w: all of my wor- ries are|vain. *||
w: Mas- ter looks on at the|strife. *|Liv- ing by|
w: Je- sus walks close to my|side. *||
w: yond that blest heav- en- ly|shore. *||
 B3- B3- [GB]2 [GB] [GB][Ac][GB] | [EG]6- [EG]3 [GB][GB][GB] | [GB]6- [GB]2 [EG] [EG][B,F][CE] | %13
w: |||
w: faith * in Je- sus a- bove,|* * Trust- ing, con-|fid- * ing in His great|
w: |||
w: |||
 F3- F3- [DF]3 Bcd | e3- e3- [Ge][Be][Be] [Af][Ae][Ac] | B3- B3- [GB]2 E GBc | %16
w: |||
w: love; * From all harm safe|* * in His shel- ter- ing arm,|* * I’m liv- ing by faith|
w: |||
w: |||
 z2 B3- [GB]2 [EG][EG] [B,E][B,F] x | E3- E3- !fermata![B,E]3 |] %18
w: ||
w: * and feel no a- larm.||
w: ||
w: ||
V:2
 x | x6 | x6 | x6 | x6 | x6 | x6 | x6 | x5 ||[M:12/8] x3 | G2 GFFA x6 | x12 | x12 | D2 DCDE x6 | %14
 x3 GGG x6 | G2 GFFA x6 | B3 GGG G x5 | B,2 B, C2 _C x3 |] %18
V:3
 [E,G,] | [E,B,][E,B,][E,B,] [E,B,][E,=A,][E,B,] | [E,E][E,E][E,E] [E,B,]2 [E,G,] | %3
w: ~|~ ~ ~ ~ ~ ~|~ ~ ~ ~ ~|
 [E,B,][E,B,][E,B,] [E,C][F,=A,][F,A,] | [B,,B,]3- [B,,B,]2 [E,G,] | %5
w: ~ ~ ~ ~ ~ ~|~ * ~|
 [E,B,][E,B,][E,B,] [E,B,][E,=A,][E,B,] | [E,E][E,E][E,E] [E,B,]2 [E,G,] | %7
w: ~ ~ ~ ~ ~ ~|~ ~ ~ ~ ~|
 [E,B,][E,B,][E,B,] [B,,A,][B,,A,][B,,A,] | [E,G,]3- [E,G,]2 ||[M:12/8] z3 | %10
w: ~ ~ ~ ~ ~ ~|~ *||
 z2 [E,E] [B,,D][B,,D][B,,D] [E,E]2 z z3 | z2 [E,B,] [C,C][C,C][C,C] [E,B,]3 z3 | %12
w: Yes, liv- ing by faith|in Je- sus a- bove,|
 z3 [E,E][E,E][E,E] [E,E]2 [E,E] [E,B,][D,B,][C,=A,] | %13
w: Trust- ing, con- fiding ~ ~ ~ ~|
 [B,,B,]2 [B,,B,] [F,=A,][F,B,][F,C] [B,,B,]3 z3 | %14
w: ~ yes, in His great love;|
 z3 [E,B,][E,B,][E,B,] [E,B,][G,E][G,E] [A,E][A,C][A,E] | %15
w: Safe from all harm, safe ~ ~ ~ ~|
 [E,E]2 [E,E] [B,,D][B,,D][B,,F] [E,E]2 z z3 | %16
w: ~ His shel- ter- ing arm,|
 z2 [E,E] [E,E][E,E][E,E] [E,B,]2 [B,,B,] [B,,B,][B,,G,][B,,A,] | %17
w: I’m liv- ing by faith ~ ~ ~ ~|
 G,2 G, A,2 ^F, !fermata![E,G,]3 |] %18
w: feel no alarm * *|
V:4
 x | x6 | x6 | x6 | x6 | x6 | x6 | x6 | x5 ||[M:12/8] x3 | x12 | x12 | x12 | x12 | x12 | x12 | %16
 x12 | E,3- E,3- x3 |] %18

